!!!OTL: S ISCH WAHR I WILL NIMMAEMEH LIAEGE
!!!ARE: Europa, Mitteleuropa, Deutschland; France, Elsass
!!!SCT: E1107
!!!YEM: Copyright 1995, estate of Helmut Schaffrath.
**kern
*ICvox
*Ivox
*M3/8
*k[b-e-]
*g:
{8g
=1
4g
8g
=2
8.b-
16a
8g
=3
8a
8dd
8dd
=4
8dd
8dd}
{16dd
16dd
=5
8.dd
16cc
8b-
=6
8.b-
16a
8g
=7
4g
8a
=8
8.a
16a}
{8a
=9
4b-
8b-
=10
8.b-
16a
8g
=11
4.a
=12
4d}
{8d
=13
8.g
16g
8g
=14
8.b-
16a
8g
=15
8.g
16dd
8dd
=16
4dd}
{8dd
=17
8dd
8cc
8b-
=18
4a
8g
=19
4.a
=20
4g}
==
!!!AGN: Luegen - Lied, Maerchen
!!!ONB: ESAC (Essen Associative Code) Database: ERK3
!!!AMT: simple triple
!!!AIN: vox
!!!EED: Helmut Schaffrath
!!!EEV: 1.0
*-
